!!!COM: Serafico, Benedetto
!!!CDT: <1575->1581
!!!OTL: Non è questa la mano
!!!PTL: Il terzo libro de madrigali a cinque et a sei voci
!!!PPP: Venice
!!!PPR: Heirs of G. Scotto
!!!PDT: 1581
!!!PUB-format:
!!!rime: 47
!!!AGN: Madrigal
!!!SCT: Trm0047c
!!!SCA: Trm0047c
!!!original-voices: 5
!!!extant-voices: 1
!!!complete: N
!!!final: A?
**kern	**text
*part1	*part1
*staff1	*staff1
*Ivox	*
*I"Quinto	*
*I'V	*
*oclefC4	*
*clefGv2	*
*k[]	*
*omet(C)	*
*M4/2	*
=1	=1
0r	.
=2	=2
0r	.
=3	=3
1r	.
4A	Non
4A	&egrave;
2A	que-
=4	=4
2E	-sta,
4E	<Non
4E	&egrave;
2A	que-
4G#X	-sta>
4G#i	la
=5	=5
2A	ma-
1E	-no
2r	.
=6	=6
0r	.
=7	=7
4r	.
2A	A-
4A	-ven-
2A	-t&ograve;
4E	nel
4E	mio
=8	=8
2G	cor
2r	.
2r	.
[2d	fiam-
=9	=9
2d]	.
2B	-mel-
2A	-l'e
2G	stra-
=10	=10
1A	-li?
4r	.
2d	Ec-
4d	-co
=11	=11
2c	che
4B	pur
4B	si
1e	tro-
=12	=12
4d	-va
4f	Nel-
4f	-le
4f	mie
4d	man
2d	ri-
4c#X	-stret-
=13	=13
2d	-ta
4r	.
4d	N&eacute;
2cni	tien
2A	fa-
=14	=14
2c	-ce o
2c	sa-
2G	-et-
2A	-ta
=15	=15
2r	.
1A	Che
2E	da
=16	=16
2A	me,
2r	.
2r	.
4r	.
[4G	Che
=17	=17
4G]	.
4G	da
2c	me
2A	la
2A	di-
=18	=18
2e	-fen-
2d	-da.
1r	.
=19	=19
1r	.
2r	.
[2c	Giu-
=20	=20
4c]	.
4c	-st'&egrave;
2c	ben
4B	ch'io
4A	ne
2G	pren-
=21	=21
2G	-da,
2r	.
4r	.
4c	A-
4A	-mor,
4d	qual-
=22	=22
4c#i	-che
2d	ven-
4c#X	-det-
2d	-ta,
2r	.
=23	=23
1r	.
2r	.
4r	.
[4d	bac-
=24	=24
8d]	.
8d	-ci
4d	li
2B	ren-
4G#X	-da,
4.e	<bac-
8e	-ci
4e	li
=25	=25
2c#X	ren-
2d	-da,>
4r	.
4.cni	<bac-
8c	-ci
4c	li
=26	=26
2B	ren-
2c	-da,>
1r	.
=27	=27
4r	.
4.A	<bac-
8A	-ci
4A	li
1A	ren-
=28	=28
2A	-da,>
2r	.
1r	.
=29	=29
2r	.
4r	.
4.d	bac-
8d	-ci
4d	li
2B	ren-
=30	=30
4G#X	-da,
4.e	<bac-
8e	-ci
4e	li
2c#X	ren-
2d	-da,>
=31	=31
4r	.
4.cni	<bac-
8c	-ci
4c	li
2B	ren-
2c	-da,>
=32	=32
1r	.
4r	.
4.A	bac-
8A	-ci
4A	li
=33	=33
1A	ren-
1Al	-da.
==	==
*-	*-
!!!RDF**kern: i = editorial accidental
!!!RDF**kern: l = terminal long
!!!ENC: Emiliano Ricciardi
!!!END: 2013
!!!EED: Ricciardi, Emiliano
!!!EEV: 2017/02/08
!!!YEC: Copyright 2013 Emiliano Ricciardi, All Rights Reserved
!!!ONB: Translated from MusicXML on 2013/08/19 and edited by Craig Stuart Sapp
!!@@BEGIN:	VERSEDATA
!!@SOLERTI:	47
!!@CATALOGNUM:	Trm0047
!!@LAST_MODIFIED: 2020/07/12
!!@TITLE:		Non è questa la mano
!!@GENRE:		madrigale/ballata
!!@MANUSRC:	Amz, Brn, C, E<sub>1</sub>, F<sub>2</sub>, I<sub>3</sub>, M<sub>7</sub>, P<sub>4</sub>, Tr<sub>2</sub>, V<sub>8</sub>, V<sub>13/E1</sub>
!!@PRINTSRC:	8, 9, 11, 12, 13, 15, 20, 24, 29, 33, 67, 145
!!@@BEGIN:	VERSES
!!@ABOUTIT:	Ballando con la sua donna desidera di fare amorosa vendetta de la sua mano ch’egli teneva stretta.
!!@ABOUTEN:	Dancing with his lady, he desires to take amorous revenge on the hand he held tight.
!!@EDITOR:	Solerti, Angelo
!!@EDITION_TITLE: Le Rime di Torquato Tasso
!!@EDITION_LOC:	Bologna
!!@EDITION_PUB:	Romagnoli-Dall’Acqua
!!@EDITION_DATE:  1898-1902
!!@EDITION_VOL:	2
!!@EDITION_PAGE:  71
!!@TRANSLATOR:	Emiliano Ricciardi and Amyrose McCue Gill
!!@VERSE:
!!	Non è questa la mano
!!	Che tante e sì mortali
!!	Avventò nel mio cor fiammelle e strali?
!!	Ecco che pur si trova
!!	Fra le mie man ristretta
!!	Né forza od arte per fuggir le giova,
!!	Né tien face o saetta
!!	Che da me la difenda.
!!	Giusto è ben ch'io ne prenda,
!!	Amor, qualche vendetta,
!!	E se piaghe mi diè baci le renda.
!!@TVERSE:
!!	Is this not the hand
!!	That so many and truly fatal
!!	Flames and arrows hurled at my heart?
!!	Yet here it is, to be found
!!	Held fast between my hands,
!!	Neither strength nor craft can help it escape,
!!	Nor does it hold a torch or a spear
!!	To defend her against me.
!!	It is just that I take,
!!	Love, some kind of revenge,
!!	And if she gave me wounds, may I give her kisses.
!!@@END:		VERSES
!!@OTHER_CRIT_ED:   Torquato Tasso, <i>Rime d’amore (secondo il codice
!!		Chigiano L VIII 302)</i>, eds. Franco Gavazzeni and
!!		Vercingetorige Martignone, vol. 4 of <i>Edizione
!!		Nazionale delle opere di Torquato Tasso</i>
!!		(Alessandria: Edizioni Dell’Orso, 2004), 34.
!!@ATTRIBUTION_ABOUT:	Secure
!!		<br>
!!		Among other authoritative sources (see Literary
!!		Sources), this poem appears in the autograph Chigiano
!!		L.VIII.302 (Biblioteca Vaticana, Rome), compiled
!!		around 1584&ndash;85.
!!@DATING:	Before 1579
!!		<br>
!!		Although Solerti dates this poem to the early 1560s,
!!		there is no hard evidence to support this dating.
!!		The earliest written testimony of “Non è questa la
!!		mano” is Benedetto Pallavicino’s musical setting,
!!		published in 1579 (Trm0047a).
!!@DEDICATEE:	Bendidio, Lucrezia
!!@DEDICATEE_INFO:
!!		In the autograph Chigiano L.VIII.302 (Biblioteca
!!		Vaticana, Rome), this poem appears among those
!!		addressed to Tasso’s <i>primo amore</i> (first love),
!!		identified as the Ferrarese singer and noblewoman
!!		<a target="_new" href="http://www.treccani.it/enciclopedia/lucrezia-bendidio_%28Dizionario-Biografico%29">Lucrezia Bendidio</a>
!!		(1547&ndash;after 1584). The poem itself, however, does not mention Lucrezia.
!!		As [Anthony Newcomb] {footnote: Anthony Newcomb, “The Ballata and the ‘Free’ Madrigal in
!!		the Second Half of the Sixteenth Century,” Journal
!!		of the American Musicological Society, vol. 63, no.
!!		3 (Fall 2010): 433&ndash;34.} has pointed out, this poem belongs to the
!!		hybrid genre of the ballata-madrigale.  More
!!		specifically, the opening tercet recalls the
!!		<i>ripresa</i> of a ballata, the central section
!!		the <i>piedi</i> (two pairs of <i>settenarii</i>
!!		separated by an <i>endecasillabo</i>), and the final
!!		tercet the <i>volta</i>. The poem is extremely rich
!!		of references to <i>topoi</i> that resonated with
!!		the culture of the time, such as courtly dance and
!!		the female hand–the latter is especially common in
!!		late sixteenth-century lyric poetry (see <i>Rime</i>
!!		315, 571, and 862). Counting 23 settings (see Musical
!!		Settings), “Non è questa la mano” is second only
!!		to “Ardi e gela a tua voglia” (<i>Rime</i> 418),
!!		whose musical fortune, however, is tied to that of
!!		Guarini’s <i>proposta</i> “Ardo sì, ma non t’amo.”
!!@@END:		VERSEDATA
!!@@BEGIN:	SETTING
!!@CATALOGNUM:	Trm0047c
!!@RIMETITLE:	Non è questa la mano
!!@SOLERTI:	47
!!@COMPOSER:	Serafico, Benedetto
!!@PRINCEPSTITLE:	Il terzo libro de madrigali a cinque et a sei voci
!!@PRINCEPSLOC:	Vineggia
!!@NORMLOC:	Venice
!!@NORMPUB:	Heirs of G. Scotto
!!@NORMPUBSHORT:	Scotto
!!@PRINCEPSPUB:	Herede di G. Scotto
!!@PRINCEPSYEAR:	1581
!!@PRINCEPSRISM:	N 53
!!@REPRINTS:	
!!@OVOICES:	5
!!@EXTANTVOICES:	1
!!@PARTBOOKS:	
!!@EXTPARTBOOKS:	
!!@OCLEFS:	C4
!!@OMENSURATION:	C
!!@OKEYSIG:	-
!!@FINAL:	A?
!!@TIMPEDITOR:	Ricciardi, Emiliano
!!@NOTE:		
!!@@END:		SETTING
